docs/.gitbook/assets/icon-store-16@dark.svg

<svg width="32" height="32" viewBox="0 0 16 16" fill="none" xmlns="http://www.w3.org/2000/svg">
<rect x="0" y="0" width="16" height="16" fill="#181c1f"/>
<path fill-rule="evenodd" clip-rule="evenodd" d="M3 2.125C3 1.50368 3.50368 1 4.125 1H11.875C12.4963 1 13 1.50368 13 2.125C13 2.74632 12.4963 3.25 11.875 3.25H4.125C3.50368 3.25 3 2.74632 3 2.125ZM1 7C1 5.48122 2.23122 4.25 3.75 4.25H12.25C13.7688 4.25 15 5.48122 15 7V9C15 10.5188 13.7688 11.75 12.25 11.75H3.75C2.23122 11.75 1 10.5188 1 9V7ZM3.75 5.75C3.05964 5.75 2.5 6.30964 2.5 7V9C2.5 9.69036 3.05964 10.25 3.75 10.25H12.25C12.9404 10.25 13.5 9.69036 13.5 9V7C13.5 6.30964 12.9404 5.75 12.25 5.75H3.75ZM4 8C4 7.58579 4.33579 7.25 4.75 7.25H5.25C5.66421 7.25 6 7.58579 6 8C6 8.41421 5.66421 8.75 5.25 8.75H4.75C4.33579 8.75 4 8.41421 4 8ZM7 8C7 7.58579 7.33579 7.25 7.75 7.25H11.25C11.6642 7.25 12 7.58579 12 8C12 8.41421 11.6642 8.75 11.25 8.75H7.75C7.33579 8.75 7 8.41421 7 8ZM3 13.875C3 13.2537 3.50368 12.75 4.125 12.75H11.875C12.4963 12.75 13 13.2537 13 13.875C13 14.4963 12.4963 15 11.875 15H4.125C3.50368 15 3 14.4963 3 13.875Z" fill="#fff"/>
</svg>

<svg xmlns="http://www.w3.org/2000/svg" width="32" height="32" fill="none" viewBox="0 0 16 16"><path fill="#181c1f" d="M0 0h16v16H0z"/><path fill="#fff" fill-rule="evenodd" d="M3 2.125C3 1.504 3.504 1 4.125 1h7.75a1.125 1.125 0 0 1 0 2.25h-7.75A1.125 1.125 0 0 1 3 2.125M1 7a2.75 2.75 0 0 1 2.75-2.75h8.5A2.75 2.75 0 0 1 15 7v2a2.75 2.75 0 0 1-2.75 2.75h-8.5A2.75 2.75 0 0 1 1 9zm2.75-1.25c-.69 0-1.25.56-1.25 1.25v2c0 .69.56 1.25 1.25 1.25h8.5c.69 0 1.25-.56 1.25-1.25V7c0-.69-.56-1.25-1.25-1.25zM4 8a.75.75 0 0 1 .75-.75h.5a.75.75 0 0 1 0 1.5h-.5A.75.75 0 0 1 4 8m3 0a.75.75 0 0 1 .75-.75h3.5a.75.75 0 0 1 0 1.5h-3.5A.75.75 0 0 1 7 8m-4 5.875c0-.621.504-1.125 1.125-1.125h7.75a1.125 1.125 0 0 1 0 2.25h-7.75A1.125 1.125 0 0 1 3 13.875" clip-rule="evenodd"/></svg>
